!!!OTL: 146. Freylekhs
!!!Genre:	Freylekhs
!!!Mode:	Minor
!!!Listening/dance:	dance
!!!One_Mode:	no
**kern
*thru
*I"P1
*clefG2
*k[b-e-]
*g:
*M2/4
*>A
=1
!LO:TX:a:i:t=G-minor
16b-LL
16aJ
8gJ
8dL
8gJ
=2
16b-LL
16aJ
8gJ
8dL
8gJ
=3
16aLL
16b-JJ
4cc
16b-LL
16aJJ
=4
4b-
4dd
=5
16b-LL
16aJ
8gJ
8dL
8gJ
=6
16b-LL
16aJ
8gJ
8dL
8gJ
=7
16aLL
16b-JJ
4cc
16b-LL
16aJJ
=8
4g
!LO:TX:b:Bi:t=Fine
4gg
=9:|!|:
!!!Begin-Modulation
*B-:
*>B
!LO:TX:a:i:t=Bb-major
4dd
(16ddLL
16cc)
(16cc
16b-JJ)
=10
8ffL
8ee-J
8ddL
16ccL
16b-JJ
=11
16aLL
16b-JJ
4cc
16b-LL
16aJJ
=12
8b-L
8f
8b-
8ccJ
!!!End-Modulation
*g:
!LO:TX:a:i:t=G-minor
=13
4dd
(16ddLL
16cc)
(16cc
16b-JJ)
=14
8ffL
8ee-J
8ddL
16ccL
16b-JJ
=15
16aLL
16b-JJ
4cc
16b-LL
16aJJ
=16
!LO:TX:b:Bi:t=Da Capo al Fine
4g
4g
=:|!
*-
